apps/web/public/assets/roles/lol-role-jungle.svg

<svg width="18" height="20" viewBox="0 0 18 20" fill="none" xmlns="http://www.w3.org/2000/svg">
<path d="M9.32143 20L2.97321 13.4387C2.8125 10.751 1.84821 8.4585 0 6.56127C3.05357 8.53755 4.90179 10.2767 5.54464 11.8577C5.22321 6.95652 4.25893 3.00395 2.73214 0C7.15179 6.08696 9.40179 10.751 9.5625 13.913C9.72321 17.0751 9.64286 19.1304 9.32143 20ZM11.8125 16.8379C12.0536 11.8577 14.0625 8.06324 18 5.5336C16.0714 8.37945 15.2679 11.0672 15.4286 13.6759L11.8125 16.8379ZM10.7679 11.3834L9.72322 7.11462C10.8482 4.82213 12.6964 2.45059 15.1875 0.158103C13.4196 3.32016 12.375 5.8498 11.8929 7.66798C11.4911 9.56522 11.0893 10.751 10.7679 11.3834Z" fill="#917444"/>
</svg>

<svg xmlns="http://www.w3.org/2000/svg" width="18" height="20" fill="currentColor">
  <path
    d="m9.321 20-6.348-6.561C2.813 10.75 1.848 8.459 0 6.56c3.054 1.977 4.902 3.716 5.545 5.297C5.223 6.957 4.259 3.004 2.732 0c4.42 6.087 6.67 10.751 6.83 13.913.161 3.162.08 5.217-.24 6.087Zm2.492-3.162c.24-4.98 2.25-8.775 6.187-11.304-1.929 2.845-2.732 5.533-2.571 8.142l-3.617 3.162Zm-1.045-5.455L9.723 7.115c1.125-2.293 2.973-4.664 5.464-6.957-1.767 3.162-2.812 5.692-3.294 7.51-.402 1.897-.804 3.083-1.125 3.715Z"
  />
</svg>
